; G-Code generated by Simplify3D(R) Version 4.0.1
; Nov 30, 2019 at 10:24:00 PM
; Settings Summary
;   processName,Process1
;   applyToModels,1-dj,1-dz
;   profileName,t1
;   profileVersion,2017-03-01 08:00:00
;   baseProfile,Default (modified)
;   printMaterial,PLA
;   printQuality,Medium
;   printExtruders,
;   extruderName,Primary Extruder
;   extruderToolheadNumber,0
;   extruderDiameter,0.35
;   extruderAutoWidth,0
;   extruderWidth,0.4
;   extrusionMultiplier,0.9
;   extruderUseRetract,1
;   extruderRetractionDistance,1
;   extruderExtraRestartDistance,0
;   extruderRetractionZLift,0
;   extruderRetractionSpeed,1800
;   extruderUseCoasting,0
;   extruderCoastingDistance,0.2
;   extruderUseWipe,0
;   extruderWipeDistance,5
;   primaryExtruder,0
;   layerHeight,0.2
;   topSolidLayers,3
;   bottomSolidLayers,3
;   perimeterOutlines,2
;   printPerimetersInsideOut,1
;   startPointOption,2
;   startPointOriginX,0
;   startPointOriginY,0
;   sequentialIslands,0
;   spiralVaseMode,0
;   firstLayerHeightPercentage,90
;   firstLayerWidthPercentage,100
;   firstLayerUnderspeed,0.5
;   useRaft,0
;   raftExtruder,0
;   raftTopLayers,3
;   raftBaseLayers,2
;   raftOffset,3
;   raftSeparationDistance,0.14
;   raftTopInfill,100
;   aboveRaftSpeedMultiplier,0.3
;   useSkirt,1
;   skirtExtruder,0
;   skirtLayers,1
;   skirtOutlines,2
;   skirtOffset,4
;   usePrimePillar,0
;   primePillarExtruder,999
;   primePillarWidth,12
;   primePillarLocation,7
;   primePillarSpeedMultiplier,1
;   useOozeShield,0
;   oozeShieldExtruder,999
;   oozeShieldOffset,2
;   oozeShieldOutlines,1
;   oozeShieldSidewallShape,1
;   oozeShieldSidewallAngle,30
;   oozeShieldSpeedMultiplier,1
;   infillExtruder,0
;   internalInfillPattern,Rectilinear
;   externalInfillPattern,Rectilinear
;   infillPercentage,20
;   outlineOverlapPercentage,15
;   infillExtrusionWidthPercentage,100
;   minInfillLength,5
;   infillLayerInterval,1
;   internalInfillAngles,45,-45
;   overlapInternalInfillAngles,0
;   externalInfillAngles,45,-45
;   generateSupport,1
;   supportExtruder,0
;   supportInfillPercentage,30
;   supportExtraInflation,0
;   supportBaseLayers,0
;   denseSupportExtruder,0
;   denseSupportLayers,0
;   denseSupportInfillPercentage,70
;   supportLayerInterval,1
;   supportHorizontalPartOffset,0.3
;   supportUpperSeparationLayers,1
;   supportLowerSeparationLayers,1
;   supportType,0
;   supportGridSpacing,4
;   maxOverhangAngle,45
;   supportAngles,0
;   temperatureName,Primary Extruder
;   temperatureNumber,0
;   temperatureSetpointCount,1
;   temperatureSetpointLayers,1
;   temperatureSetpointTemperatures,210
;   temperatureStabilizeAtStartup,1
;   temperatureHeatedBed,0
;   temperatureRelayBetweenLayers,0
;   temperatureRelayBetweenLoops,0
;   fanLayers,1,2
;   fanSpeeds,0,100
;   blipFanToFullPower,0
;   adjustSpeedForCooling,1
;   minSpeedLayerTime,15
;   minCoolingSpeedSlowdown,20
;   increaseFanForCooling,0
;   minFanLayerTime,45
;   maxCoolingFanSpeed,100
;   increaseFanForBridging,0
;   bridgingFanSpeed,100
;   use5D,1
;   relativeEdistances,0
;   allowEaxisZeroing,1
;   independentExtruderAxes,0
;   includeM10123,0
;   stickySupport,1
;   applyToolheadOffsets,0
;   gcodeXoffset,0
;   gcodeYoffset,0
;   gcodeZoffset,0
;   overrideMachineDefinition,1
;   machineTypeOverride,0
;   strokeXoverride,200
;   strokeYoverride,200
;   strokeZoverride,300
;   originOffsetXoverride,0
;   originOffsetYoverride,0
;   originOffsetZoverride,0
;   homeXdirOverride,-1
;   homeYdirOverride,-1
;   homeZdirOverride,-1
;   flipXoverride,1
;   flipYoverride,-1
;   flipZoverride,1
;   toolheadOffsets,0,0|0,0|0,0|0,0|0,0|0,0
;   overrideFirmwareConfiguration,0
;   firmwareTypeOverride,RepRap (Marlin/Repetier/Sprinter)
;   GPXconfigOverride,r2
;   baudRateOverride,115200
;   overridePrinterModels,0
;   printerModelsOverride
;   startingGcode,G28 ; home all axes
;   layerChangeGcode,
;   retractionGcode,
;   toolChangeGcode,
;   endingGcode,M104 S0 ; turn off extruder,M140 S0 ; turn off bed,M84 ; disable motors
;   exportFileFormat,gcode
;   celebration,0
;   celebrationSong,Random Song
;   postProcessing,
;   defaultSpeed,3600
;   outlineUnderspeed,0.5
;   solidInfillUnderspeed,0.8
;   supportUnderspeed,0.8
;   rapidXYspeed,4800
;   rapidZspeed,1000
;   minBridgingArea,50
;   bridgingExtraInflation,0
;   bridgingExtrusionMultiplier,1
;   bridgingSpeedMultiplier,1
;   useFixedBridgingAngle,0
;   fixedBridgingAngle,0
;   applyBridgingToPerimeters,0
;   filamentDiameters,1.75|1.75|1.75|1.75|1.75|1.75
;   filamentPricesPerKg,46|46|46|46|46|46
;   filamentDensities,1.25|1.25|1.25|1.25|1.25|1.25
;   useMinPrintHeight,0
;   minPrintHeight,0
;   useMaxPrintHeight,0
;   maxPrintHeight,0
;   useDiaphragm,0
;   diaphragmLayerInterval,20
;   robustSlicing,1
;   mergeAllIntoSolid,0
;   onlyRetractWhenCrossingOutline,1
;   retractBetweenLayers,1
;   useRetractionMinTravel,0
;   retractionMinTravel,3
;   retractWhileWiping,0
;   onlyWipeOutlines,1
;   avoidCrossingOutline,0
;   maxMovementDetourFactor,3
;   toolChangeRetractionDistance,12
;   toolChangeExtraRestartDistance,-0.5
;   toolChangeRetractionSpeed,600
;   externalThinWallType,0
;   internalThinWallType,2
;   thinWallAllowedOverlapPercentage,10
;   singleExtrusionMinLength,1
;   singleExtrusionMinPrintingWidthPercentage,50
;   singleExtrusionMaxPrintingWidthPercentage,200
;   singleExtrusionEndpointExtension,0.2
;   horizontalSizeCompensation,0
G90
M82
M106 S0
M104 S210 T0
M109 S210 T0
G28 ; home all axes
G92 E0
G1 E-1.0000 F1800
G1 Z0.180 F1000
; process Process1
; layer 1, Z = 0.180
T0
; tool H0.200 W0.400
; skirt
G1 X62.644 Y67.022 F4800
G1 E0.0000 F540
G92 E0
G1 X62.692 Y66.983 E0.0018 F1800
G1 X64.092 Y66.063 E0.0520
G1 X64.144 Y66.036 E0.0537
G1 X64.929 Y65.718 E0.0791
G1 X64.985 Y65.701 E0.0808
G1 X66.337 Y65.444 E0.1220
G1 X66.365 Y65.440 E0.1229
G1 X66.769 Y65.401 E0.1350
G1 X66.797 Y65.400 E0.1359
G1 X133.203 Y65.400 E2.1237
G1 X133.231 Y65.401 E2.1245
G1 X133.635 Y65.440 E2.1367
G1 X133.663 Y65.444 E2.1375
G1 X135.015 Y65.701 E2.1787
G1 X135.071 Y65.718 E2.1805
G1 X135.856 Y66.036 E2.2058
G1 X135.908 Y66.063 E2.2076
G1 X137.308 Y66.983 E2.2577
G1 X137.356 Y67.022 E2.2595
G1 X137.978 Y67.644 E2.2859
G1 X138.017 Y67.692 E2.2877
G1 X138.937 Y69.092 E2.3379
G1 X138.964 Y69.144 E2.3396
G1 X139.282 Y69.929 E2.3650
G1 X139.299 Y69.985 E2.3668
G1 X139.556 Y71.337 E2.4079
G1 X139.560 Y71.365 E2.4088
G1 X139.599 Y71.769 E2.4209
G1 X139.600 Y71.797 E2.4218
G1 X139.600 Y98.203 E3.2122
G1 X139.599 Y98.231 E3.2131
G1 X139.560 Y98.635 E3.2252
G1 X139.556 Y98.663 E3.2260
G1 X139.299 Y100.015 E3.2672
G1 X139.282 Y100.071 E3.2690
G1 X138.964 Y100.856 E3.2944
G1 X138.937 Y100.908 E3.2961
G1 X138.017 Y102.308 E3.3462
G1 X137.978 Y102.356 E3.3481
G1 X137.356 Y102.978 E3.3744
G1 X137.308 Y103.017 E3.3763
G1 X135.908 Y103.937 E3.4264
G1 X135.856 Y103.964 E3.4282
G1 X135.071 Y104.282 E3.4535
G1 X135.015 Y104.299 E3.4553
G1 X133.663 Y104.556 E3.4965
G1 X133.635 Y104.560 E3.4973
G1 X133.231 Y104.599 E3.5095
G1 X133.203 Y104.600 E3.5103
G1 X120.661 Y104.600 E3.8857
G1 X124.845 Y108.783 E4.0628
G1 X124.936 Y109.004 E4.0700
G1 X124.936 Y110.875 E4.1260
G1 X125.845 Y111.783 E4.1644
G1 X125.936 Y112.004 E4.1716
G1 X125.936 Y122.996 E4.5006
G1 X125.845 Y123.217 E4.5078
G1 X124.936 Y124.125 E4.5463
G1 X124.936 Y125.996 E4.6023
G1 X124.845 Y126.217 E4.6094
G1 X118.333 Y132.729 E4.8851
G1 X118.112 Y132.820 E4.8922
G1 X117.241 Y132.820 E4.9183
G1 X116.333 Y133.729 E4.9567
G1 X116.112 Y133.820 E4.9639
G1 X115.241 Y133.820 E4.9900
G1 X114.333 Y134.729 E5.0284
G1 X114.112 Y134.820 E5.0356
G1 X103.120 Y134.820 E5.3646
G1 X102.899 Y134.729 E5.3718
G1 X101.990 Y133.820 E5.4102
G1 X101.120 Y133.820 E5.4363
G1 X100.899 Y133.729 E5.4434
G1 X99.990 Y132.820 E5.4819
G1 X99.120 Y132.820 E5.5080
G1 X98.899 Y132.729 E5.5151
G1 X94.536 Y128.366 E5.6998
G1 X65.342 Y128.366 E6.5737
G1 X65.296 Y128.362 E6.5751
G1 X64.654 Y128.264 E6.5946
G1 X64.610 Y128.254 E6.5959
G1 X63.701 Y127.971 E6.6244
G1 X63.643 Y127.947 E6.6263
G1 X62.858 Y127.507 E6.6532
G1 X62.807 Y127.471 E6.6551
G1 X62.016 Y126.778 E6.6866
G1 X61.969 Y126.727 E6.6887
G1 X61.385 Y125.908 E6.7188
G1 X61.351 Y125.846 E6.7209
G1 X60.945 Y124.847 E6.7531
G1 X60.928 Y124.791 E6.7549
G1 X60.769 Y123.974 E6.7798
G1 X60.763 Y123.916 E6.7815
G1 X60.763 Y111.084 E7.1657
G1 X60.769 Y111.026 E7.1674
G1 X60.928 Y110.209 E7.1923
G1 X60.945 Y110.153 E7.1941
G1 X61.351 Y109.154 E7.2264
G1 X61.385 Y109.092 E7.2285
G1 X61.969 Y108.273 E7.2586
G1 X62.016 Y108.222 E7.2607
G1 X62.807 Y107.529 E7.2921
G1 X62.858 Y107.493 E7.2940
G1 X63.643 Y107.053 E7.3210
G1 X63.701 Y107.029 E7.3228
G1 X64.610 Y106.746 E7.3513
G1 X64.654 Y106.735 E7.3527
G1 X65.296 Y106.638 E7.3721
G1 X65.342 Y106.634 E7.3735
G1 X94.536 Y106.634 E8.2474
G1 X96.570 Y104.600 E8.3335
G1 X66.797 Y104.600 E9.2248
G1 X66.769 Y104.599 E9.2256
G1 X66.365 Y104.560 E9.2378
G1 X66.337 Y104.556 E9.2386
G1 X64.985 Y104.299 E9.2798
G1 X64.929 Y104.282 E9.2816
G1 X64.144 Y103.964 E9.3069
G1 X64.092 Y103.937 E9.3087
G1 X62.692 Y103.017 E9.3588
G1 X62.644 Y102.978 E9.3606
G1 X62.022 Y102.356 E9.3870
G1 X61.983 Y102.308 E9.3888
G1 X61.063 Y100.908 E9.4390
G1 X61.036 Y100.856 E9.4407
G1 X60.718 Y100.071 E9.4661
G1 X60.701 Y100.015 E9.4679
G1 X60.444 Y98.663 E9.5090
G1 X60.440 Y98.635 E9.5099
G1 X60.401 Y98.231 E9.5220
G1 X60.400 Y98.203 E9.5229
G1 X60.400 Y71.797 E10.3133
G1 X60.401 Y71.769 E10.3142
G1 X60.440 Y71.365 E10.3263
G1 X60.444 Y71.337 E10.3271
G1 X60.701 Y69.985 E10.3683
G1 X60.718 Y69.929 E10.3701
G1 X61.036 Y69.144 E10.3955
G1 X61.063 Y69.092 E10.3972
G1 X61.983 Y67.692 E10.4473
G1 X62.022 Y67.644 E10.4492
G1 X62.644 Y67.022 E10.4755
G1 X62.913 Y67.319 F4800
G92 E0
G1 X62.929 Y67.306 E0.0006 F1800
G1 X64.295 Y66.409 E0.0495
G1 X64.312 Y66.399 E0.0501
G1 X65.061 Y66.096 E0.0743
G1 X65.080 Y66.091 E0.0749
G1 X66.403 Y65.838 E0.1152
G1 X66.412 Y65.837 E0.1155
G1 X66.797 Y65.800 E0.1271
G1 X66.807 Y65.800 E0.1274
G1 X133.193 Y65.800 E2.1146
G1 X133.203 Y65.800 E2.1149
G1 X133.588 Y65.837 E2.1264
G1 X133.597 Y65.838 E2.1267
G1 X134.920 Y66.091 E2.1671
G1 X134.939 Y66.096 E2.1676
G1 X135.688 Y66.399 E2.1918
G1 X135.705 Y66.409 E2.1924
G1 X137.071 Y67.306 E2.2413
G1 X137.087 Y67.319 E2.2419
G1 X137.681 Y67.913 E2.2671
G1 X137.694 Y67.929 E2.2677
G1 X138.591 Y69.295 E2.3166
G1 X138.601 Y69.312 E2.3172
G1 X138.904 Y70.061 E2.3414
G1 X138.909 Y70.080 E2.3420
G1 X139.162 Y71.403 E2.3823
G1 X139.163 Y71.412 E2.3826
G1 X139.200 Y71.797 E2.3942
G1 X139.200 Y71.807 E2.3944
G1 X139.200 Y98.193 E3.1843
G1 X139.200 Y98.203 E3.1846
G1 X139.163 Y98.588 E3.1962
G1 X139.162 Y98.597 E3.1965
G1 X138.909 Y99.920 E3.2368
G1 X138.904 Y99.939 E3.2374
G1 X138.601 Y100.688 E3.2615
G1 X138.591 Y100.705 E3.2621
G1 X137.694 Y102.071 E3.3111
G1 X137.681 Y102.087 E3.3117
G1 X137.087 Y102.681 E3.3368
G1 X137.071 Y102.694 E3.3374
G1 X135.705 Y103.591 E3.3864
G1 X135.688 Y103.601 E3.3869
G1 X134.939 Y103.904 E3.4111
G1 X134.920 Y103.909 E3.4117
G1 X133.597 Y104.162 E3.4520
G1 X133.588 Y104.163 E3.4523
G1 X133.203 Y104.200 E3.4639
G1 X133.193 Y104.200 E3.4642
G1 X119.696 Y104.200 E3.8682
G1 X124.505 Y109.010 E4.0718
G1 X124.536 Y109.083 E4.0742
G1 X124.536 Y111.040 E4.1328
G1 X125.505 Y112.010 E4.1738
G1 X125.536 Y112.083 E4.1762
G1 X125.536 Y122.917 E4.5005
G1 X125.505 Y122.990 E4.5029
G1 X124.536 Y123.960 E4.5439
G1 X124.536 Y125.917 E4.6025
G1 X124.505 Y125.990 E4.6049
G1 X118.106 Y132.390 E4.8758
G1 X118.032 Y132.420 E4.8782
G1 X117.076 Y132.420 E4.9068
G1 X116.106 Y133.390 E4.9479
G1 X116.032 Y133.420 E4.9502
G1 X115.076 Y133.420 E4.9789
G1 X114.106 Y134.390 E5.0199
G1 X114.032 Y134.420 E5.0223
G1 X103.199 Y134.420 E5.3466
G1 X103.126 Y134.390 E5.3490
G1 X102.156 Y133.420 E5.3900
G1 X101.199 Y133.420 E5.4187
G1 X101.126 Y133.390 E5.4211
G1 X100.156 Y132.420 E5.4621
G1 X99.199 Y132.420 E5.4907
G1 X99.126 Y132.390 E5.4931
G1 X94.702 Y127.966 E5.6804
G1 X65.357 Y127.966 E6.5588
G1 X65.342 Y127.965 E6.5593
G1 X64.729 Y127.871 E6.5778
G1 X64.714 Y127.868 E6.5783
G1 X63.840 Y127.596 E6.6057
G1 X63.820 Y127.587 E6.6063
G1 X63.072 Y127.168 E6.6320
G1 X63.055 Y127.156 E6.6326
G1 X62.296 Y126.493 E6.6628
G1 X62.281 Y126.476 E6.6635
G1 X61.724 Y125.694 E6.6922
G1 X61.713 Y125.674 E6.6929
G1 X61.323 Y124.714 E6.7239
G1 X61.317 Y124.696 E6.7245
G1 X61.165 Y123.916 E6.7483
G1 X61.163 Y123.897 E6.7488
G1 X61.163 Y111.103 E7.1318
G1 X61.165 Y111.084 E7.1324
G1 X61.317 Y110.304 E7.1562
G1 X61.323 Y110.286 E7.1567
G1 X61.713 Y109.326 E7.1878
G1 X61.724 Y109.306 E7.1885
G1 X62.281 Y108.524 E7.2172
G1 X62.296 Y108.507 E7.2179
G1 X63.055 Y107.844 E7.2480
G1 X63.072 Y107.832 E7.2487
G1 X63.820 Y107.413 E7.2743
G1 X63.840 Y107.404 E7.2750
G1 X64.714 Y107.132 E7.3024
G1 X64.729 Y107.129 E7.3028
G1 X65.342 Y107.035 E7.3214
G1 X65.357 Y107.034 E7.3218
G1 X94.702 Y107.034 E8.2003
G1 X97.536 Y104.200 E8.3202
G1 X66.807 Y104.200 E9.2401
G1 X66.797 Y104.200 E9.2404
G1 X66.412 Y104.163 E9.2520
G1 X66.403 Y104.162 E9.2523
G1 X65.080 Y103.909 E9.2926
G1 X65.061 Y103.904 E9.2932
G1 X64.312 Y103.601 E9.3173
G1 X64.295 Y103.591 E9.3179
G1 X62.929 Y102.694 E9.3669
G1 X62.913 Y102.681 E9.3675
G1 X62.319 Y102.087 E9.3926
G1 X62.306 Y102.071 E9.3932
G1 X61.409 Y100.705 E9.4422
G1 X61.399 Y100.688 E9.4427
G1 X61.096 Y99.939 E9.4669
G1 X61.091 Y99.920 E9.4675
G1 X60.838 Y98.597 E9.5078
G1 X60.837 Y98.588 E9.5081
G1 X60.800 Y98.203 E9.5197
G1 X60.800 Y98.193 E9.5200
G1 X60.800 Y71.807 E10.3098
G1 X60.800 Y71.797 E10.3101
G1 X60.837 Y71.412 E10.3217
G1 X60.838 Y71.403 E10.3220
G1 X61.091 Y70.080 E10.3623
G1 X61.096 Y70.061 E10.3629
G1 X61.399 Y69.312 E10.3871
G1 X61.409 Y69.295 E10.3876
G1 X62.306 Y67.929 E10.4366
G1 X62.319 Y67.913 E10.4372
G1 X62.913 Y67.319 E10.4623
G92 E0
G1 E-1.0000 F1800
; inner perimeter
G1 X66.019 Y71.019 F4800
G1 E0.0000 F1800
G92 E0
G1 X66.493 Y70.708 E0.0170 F1350
G1 X67.057 Y70.600 E0.0342
G1 X74.150 Y70.600 E0.2465
G1 X74.150 Y78.900 E0.4949
G1 X66.150 Y78.900 E0.7344
G1 X66.150 Y90.600 E1.0846
G1 X74.150 Y90.600 E1.3241
G1 X74.150 Y99.400 E1.5875
G1 X67.057 Y99.400 E1.7999
G1 X66.493 Y99.292 E1.8170
G1 X66.019 Y98.981 E1.8340
G1 X65.708 Y98.507 E1.8510
G1 X65.600 Y97.943 E1.8682
G1 X65.600 Y72.057 E2.6431
G1 X65.708 Y71.493 E2.6602
G1 X66.019 Y71.019 E2.6772
G1 X115.287 Y70.600 F4800
G92 E0
G1 X132.943 Y70.600 E0.5285 F1350
G1 X133.507 Y70.708 E0.5457
G1 X133.981 Y71.019 E0.5627
G1 X134.292 Y71.493 E0.5797
G1 X134.400 Y72.057 E0.5968
G1 X134.400 Y97.943 E1.3717
G1 X134.292 Y98.507 E1.3889
G1 X133.981 Y98.981 E1.4059
G1 X133.507 Y99.292 E1.4229
G1 X132.943 Y99.400 E1.4400
G1 X115.287 Y99.400 E1.9685
G1 X115.287 Y70.600 E2.8306
; outer perimeter
G1 X132.981 Y70.200 F4800
G92 E0
G1 X133.660 Y70.330 E0.0207 F900
G1 X134.270 Y70.730 E0.0425
G1 X134.670 Y71.340 E0.0644
G1 X134.800 Y72.019 E0.0851
G1 X134.800 Y97.981 E0.8622
G1 X134.670 Y98.660 E0.8829
G1 X134.270 Y99.270 E0.9047
G1 X133.660 Y99.670 E0.9266
G1 X132.981 Y99.800 E0.9473
G1 X67.019 Y99.800 E2.9218
G1 X66.340 Y99.670 E2.9425
G1 X65.730 Y99.270 E2.9643
G1 X65.330 Y98.660 E2.9862
G1 X65.200 Y97.981 E3.0069
G1 X65.200 Y72.019 E3.7840
G1 X65.330 Y71.340 E3.8047
G1 X65.730 Y70.730 E3.8265
G1 X66.340 Y70.330 E3.8484
G1 X67.019 Y70.200 E3.8691
G1 X132.981 Y70.200 E5.8436
; inner perimeter
G1 X130.126 Y73.998 F4800
G92 E0
G1 X129.748 Y73.822 E0.0125 F1350
G1 X129.345 Y73.714 E0.0250
G1 X128.930 Y73.678 E0.0374
G1 X128.514 Y73.714 E0.0499
G1 X128.112 Y73.822 E0.0624
G1 X127.734 Y73.998 E0.0749
G1 X127.392 Y74.238 E0.0874
G1 X127.097 Y74.532 E0.0999
G1 X126.858 Y74.874 E0.1123
G1 X126.682 Y75.252 E0.1248
G1 X126.574 Y75.655 E0.1373
G1 X126.537 Y76.070 E0.1498
G1 X126.574 Y76.486 E0.1623
G1 X126.683 Y76.891 E0.1749
G1 X126.858 Y77.266 E0.1872
G1 X127.097 Y77.608 E0.1997
G1 X127.392 Y77.903 E0.2122
G1 X127.734 Y78.142 E0.2247
G1 X128.112 Y78.318 E0.2372
G1 X128.514 Y78.426 E0.2497
G1 X128.930 Y78.462 E0.2621
G1 X129.345 Y78.426 E0.2746
G1 X129.748 Y78.318 E0.2871
G1 X130.126 Y78.142 E0.2996
G1 X130.468 Y77.903 E0.3121
